X: 11215
T: Duple Triple, The
R: jig
M: 6/8
K: Adorian
B|cAA eAc|Bcd E^GB|cAA eAB|A^GF GAB|
cAA eAc|Bcd eaa|^gab age|dB^G A2:|
|:f|^gee aee|^ge de Be|^gab age|de ce fe|
^gee aee|^ge de Be|^gab age|dB^G A2:|

